icon/fa/jar-wheat.svg

<svg xmlns="http://www.w3.org/2000/svg" viewBox="0 0 320 512"><!--! Font Awesome Free 6.1.2 by @fontawesome - https://fontawesome.com License - https://fontawesome.com/license/free (Icons: CC BY 4.0, Fonts: SIL OFL 1.1, Code: MIT License) Copyright 2022 Fonticons, Inc.--><path d="M32 32C32 14.33 46.33 0 64 0h192c17.7 0 32 14.33 32 32s-14.3 32-32 32H64c-17.67 0-32-14.33-32-32zM0 160c0-35.3 28.65-64 64-64h192c35.3 0 64 28.7 64 64v288c0 35.3-28.7 64-64 64H64c-35.35 0-64-28.7-64-64V160zm192 160c35.3 0 64-28.7 64-64h-48c-19.1 0-36.3 8.4-48 21.7-11.7-13.3-28.9-21.7-48-21.7H64c0 35.3 28.65 64 64 64h64zm0-96c35.3 0 64-28.7 64-64h-48c-19.1 0-36.3 8.4-48 21.7-11.7-13.3-28.9-21.7-48-21.7H64c0 35.3 28.65 64 64 64h64zm0 192c35.3 0 64-28.7 64-64h-48c-19.1 0-36.3 8.4-48 21.7-11.7-13.3-28.9-21.7-48-21.7H64c0 35.3 28.65 64 64 64h16v32c0 8.8 7.2 16 16 16s16-7.2 16-16v-32h16z"/></svg>

<svg xmlns="http://www.w3.org/2000/svg" viewBox="0 0 320 512" height="1em" width="1em">
<!--! Font Awesome Free 6.1.2 by @fontawesome - https://fontawesome.com License - https://fontawesome.com/license/free (Icons: CC BY 4.0, Fonts: SIL OFL 1.1, Code: MIT License) Copyright 2022 Fonticons, Inc.-->
  <path d="M32 32C32 14.33 46.33 0 64 0H256C273.7 0 288 14.33 288 32C288 49.67 273.7 64 256 64H64C46.33 64 32 49.67 32 32zM0 160C0 124.7 28.65 96 64 96H256C291.3 96 320 124.7 320 160V448C320 483.3 291.3 512 256 512H64C28.65 512 0 483.3 0 448V160zM192 320C227.3 320 256 291.3 256 256H208C188.9 256 171.7 264.4 160 277.7C148.3 264.4 131.1 256 112 256H64C64 291.3 92.65 320 128 320H192zM192 224C227.3 224 256 195.3 256 160H208C188.9 160 171.7 168.4 160 181.7C148.3 168.4 131.1 160 112 160H64C64 195.3 92.65 224 128 224H192zM192 416C227.3 416 256 387.3 256 352H208C188.9 352 171.7 360.4 160 373.7C148.3 360.4 131.1 352 112 352H64C64 387.3 92.65 416 128 416H144V448C144 456.8 151.2 464 160 464C168.8 464 176 456.8 176 448V416H192z"/>
</svg>
